!!!COM: Music21
!!!OTL: Carrasqueira
!!!OMV: pezas_polca_carrasqueira_carrasqueira-partitura.musicxml
**kern
*part1
*staff1
*I"Bagpipes
*I'Bag
*clefG^2
*k[]
*M2/4
=1
!LO:TX:a:t=Allegro
*MM132
!LO:TX:a:t=[quarter]=132
4r
16eeLL
16cc
16ee
16ggJJ
=||
16cccLL
16gg
16ee
16ggJJ
16ffLL
16dd
16b
16ffJJ
=
8eeL
8ccJ
16ggLL
16aa
16bb
16cccJJ
=
16aaLL
16bb
16gg
16aaJJ
16ffLL
16gg
16aa
16bbJJ
=
8ggL
8eeJ
16eeLL
16cc
16ee
16ggJJ
!!linebreak:original
=
16cccLL
16gg
16ee
16ggJJ
16ffLL
16dd
16b
16ffJJ
=
8eeL
8ccJ
16eeLL
16cc
16ee
16ggJJ
=
16cccLL
16gg
16ee
16ggJJ
16ffLL
16dd
16b
16ddJJ
=
4cc
16eeLL
16cc
16ee
16ggJJ
=||
16cccLL
16gg
16ee
16ggJJ
16ffLL
16dd
16b
16ffJJ
=
8eeL
8ccJ
16ggLL
16aa
16bb
16cccJJ
!!linebreak:original
=
16aaLL
16bb
16gg
16aaJJ
16ffLL
16gg
16aa
16bbJJ
=
8ggL
8eeJ
16eeLL
16cc
16ee
16ggJJ
!!linebreak:original
=
16cccLL
16gg
16ee
16ggJJ
16ffLL
16dd
16b
16ffJJ
=
8eeL
8ccJ
16eeLL
16cc
16ee
16ggJJ
=
16cccLL
16gg
16ee
16ggJJ
16ffLL
16dd
16b
16ddJJ
=
8.ccL
16cccJk
8.aaL
16bbJk
=||
8.ggL
16bbJk
16aaLL
16bb
16aa
16ggJJ
!!linebreak:original
=
16ffLL
16gg
16aa
16bbJJ
8.ggL
16aaJk
=
8.ffL
16aaJk
16ggLL
16aa
16gg
16ffJJ
=
16eeLL
16ff
16gg
16cccJJ
8.aaL
16bbJk
=||
8.ggL
16bbJk
16aaLL
16bb
16aa
16ggJJ
!!pagebreak:original
=
16ffLL
16gg
16aa
16bbJJ
8.ggL
16aaJk
=
8.ffL
16aaJk
16ggLL
16ff
16ee
16ddJJ
=||
16ccLL
16ee
16dd
16ccJJ
16bLL
16ff
16ee
16ddJJ
!!linebreak:original
=
16ccLL
16dd
16ee
16ccJJ
16ddLL
16ee
16ff
16eeJJ
=
16ddLL
16cc
16b
16ddJJ
8ccL
16ggL
16eeJJ
=||
16cccLL
16bb
16aa
16ggJJ
16bbLL
16aa
16gg
16ffJJ
=
[4aa
8aa]
24ggLL
24ff
24eeJJ
=
[4gg
8gg]
24ffLL
24ee
24ddJJ
=
[4aa
16aaLL]
16gg
16aa
16bbJJ
!!linebreak:original
=
16cccLL
16bb
16aa
16ggJJ
16bbLL
16aa
16gg
16ffJJ
=
[4aa
8aa]
24ggLL
24ff
24eeJJ
=
[4gg
16ggLL]
16aa
16gg
16ffJJ
=
[4ee
16eeLL]
16gg
16aa
16bbJJ
=||
16cccLL
16bb
16aa
16ggJJ
16bbLL
16aa
16gg
16ffJJ
=
[4aa
8aa]
24ggLL
24ff
24eeJJ
!!linebreak:original
=
[4gg
8gg]
24ffLL
24ee
24ddJJ
=
[4aa
16aaLL]
16gg
16aa
16bbJJ
!!linebreak:original
=
16cccLL
16bb
16aa
16ggJJ
16bbLL
16aa
16gg
16ffJJ
=
[4aa
8aa]
24ggLL
24ff
24eeJJ
=
[4gg
16ggLL]
16aa
16gg
16ffJJ
=||
4ee
16eeLL
16cc
16ee
16ggJJ
=||
4ee
4r
==
*-
!!!system-decoration: s1,s2
